img/gift-icon.svg

<svg width="76" height="76" viewBox="0 0 76 76" fill="none" xmlns="http://www.w3.org/2000/svg">
<g id="Advantage-icon">
<path id="Vector" d="M67.6 22.4625H67.5H42.8C56.6 15.5576 57.7 11.1546 57.2 8.75288C56 4.75007 51.5 1.74797 47.2 3.34909C41.6 5.45056 40.1 13.7564 38.6 19.7606C36.6 13.6563 34.8 5.95091 30.4 2.04818C29.1 0.947407 27.3 -0.253434 24.6 0.0467764C20.6 0.447057 14.8 5.45056 17.1 11.0545C19.4 16.4583 26.8 19.8607 31.7 22.5626H9.7H9.4C7.8 22.5626 6.5 23.8635 6.5 25.4646V36.7725C6.5 38.3736 7.8 39.6745 9.4 39.6745H9.7V72.9979V75.3996V76H67.5V75.4996V72.9979V39.5745H67.6C69.2 39.5745 70.5 38.2736 70.5 36.6724V25.3645C70.5 23.7634 69.2 22.4625 67.6 22.4625ZM48.9 5.85084C51 5.55063 53.9 7.15176 54.2 9.05309C54.6 11.8551 50.8 14.3568 49.1 15.4576C46.6 17.1588 44.2 18.0594 41.8 19.5604C42.7 15.8579 44.3 6.55133 48.9 5.85084ZM26 15.8579C23.8 14.3568 19.5 11.4548 19.6 8.05239C19.7 4.44986 25.3 1.44776 28.4 4.14965C32.3 7.55203 34.1 15.2574 35.5 20.7613C32.3 19.2602 29.2 17.9593 26 15.8579ZM32 72.9979H12.6V39.5745H32V72.9979ZM32 36.4723H9.5V25.4646H32V36.4723ZM42.2 36.4723V39.4744V72.9979H35V39.5745V36.5724V25.5647H42.2V36.4723ZM64.5 72.9979H45.1V39.5745H64.5V72.9979ZM67.4 36.4723H45.1V25.4646H67.4V36.4723Z" fill="#83B3D3"/>
</g>
</svg>

<svg xmlns="http://www.w3.org/2000/svg" width="76" height="76" fill="none"><path fill="#83B3D3" d="M67.6 22.462H42.8c13.8-6.904 14.9-11.307 14.4-13.71-1.2-4.002-5.7-7.004-10-5.403-5.6 2.102-7.1 10.407-8.6 16.412-2-6.105-3.8-13.81-8.2-17.713-1.3-1.1-3.1-2.301-5.8-2.001-4 .4-9.8 5.404-7.5 11.008 2.3 5.403 9.7 8.806 14.6 11.508H9.4c-1.6 0-2.9 1.3-2.9 2.902v11.308c0 1.6 1.3 2.901 2.9 2.901h.3V76h57.8V39.574h.1c1.6 0 2.9-1.3 2.9-2.902V25.365c0-1.602-1.3-2.902-2.9-2.902ZM48.9 5.851c2.1-.3 5 1.3 5.3 3.202.4 2.802-3.4 5.304-5.1 6.405-2.5 1.7-4.9 2.601-7.3 4.102.9-3.702 2.5-13.009 7.1-13.71ZM26 15.858c-2.2-1.501-6.5-4.403-6.4-7.806.1-3.602 5.7-6.604 8.8-3.902 3.9 3.402 5.7 11.107 7.1 16.611-3.2-1.5-6.3-2.802-9.5-4.903Zm6 57.14H12.6V39.574H32v33.424Zm0-36.526H9.5V25.465H32v11.007Zm10.2 0v36.526H35V25.565h7.2v10.907Zm22.3 36.526H45.1V39.574h19.4v33.424Zm2.9-36.526H45.1V25.465h22.3v11.007Z"/></svg>
